X:251
T:Lincolnshire Hornpipe. Le4.251
L:1/8
B:L.Leadley MS#4 c1850
Z:vmp.Mike Hicken 2016 www.village-music-project.org.uk
N: This is tune 42 of The Fiddler of Helperby.
N: * These notes are quavers in the original.
N: ** 1st and 2nd time bars added to give the correct repeats.
M:C|
Q:1/4=120
K:A
"*"E2|A2 (3cBA G>BE>G|A>ce>c|a>ec>A|F>Af>e d>cB>A|(3BcB (3AGF E>dc>B|
A2 (3cBA G>BE>G|A>ce>c a>ec>A|F>fe>d c>AB>G|1 "**"A2A2A2 :|2 A2A2A4||
|: B>e^d>f e>gf>a|g>"*"e (3fga g>fe>g|a>gf>a g>fe>g|fe^dc B2 AG|
Acea "as written"GBdg|(3EAc df eBGB|eagf edcd|e^def edcB "^D Capo":|

